-----BEGIN PGP SIGNATURE-----

iQGzBAABCAAdFiEEHvDwxUBGSUSAYyxMtBMfl5/IlU4FAmqwzQcACgkQtBMfl5/I
lU55qgv+Ml3FsoI5ezejtdfag0ED1tln+Yo0Xpthfpo08/PhP4xuQ2M+rvMAfouH
pMo2swaLztAl4XZS6H3WOQIYBCz5ydDOMVtexS1PL9wclocer/Ey1jo/WtmxKL4E
pKXXydt3wTThmNdjDPm2fro1bXY7+h4UgE6VEhrW6TeBwvjzPYMdgk4zC9tXjjgO
LrJDKBkjQF1ToiPaCahjBYMrVhHGrgoKLT5qokxqMEMMctNtyPnYDNPZ2CikSD6Z
LY4Nv2u3IBynGD3baEJb8uAyNAd1wydkDc1SDg/6wrqwMfUXPMeu+4MC0eLk4lek
OsTVu6hIletlixsqrUEEwi8j6+eREn3IWywYV2rJMvKY5xud9exIK7aihw7+v/ey
/7eKxTivSC4AVnvtE4O8LgTpQ/5cUyRzepafalDTIJVINwlKa3ML3rmdJlcqLEmu
1h2a6W8V9IRaUC6/0zqGydXbss8tBDl0o1h2SRTJkLTAufbPQHs6qqSDoEzWHshx
pP61dWq3
=1PY8
-----END PGP SIGNATURE-----
